X:1
T:My Friend
T:My Friend
T:Emmett Sidney Dean, 1915
T:Bernard Bates Edmiaston, 1906
T:Public Domain Courtesy of the Cyber Hymnal™
T:Public Domain Courtesy of the Cyber Hymnal™
C:Emmett Sidney Dean, 1915
Z:Public Domain
Z:Courtesy of the Cyber Hymnal™
%%score ( 1 2 ) ( 3 4 )
L:1/8
Q:1/4=98
M:4/4
K:Bb
V:1 treble 
V:2 treble 
V:3 bass 
V:4 bass 
V:1
 [DF]>[DG] [DB]>[DG] [DF]2 [B,D]2 | [DF]2 [DG]2 [B,D]4 | [DF]>[DG] [DB]>[DG] [DF]2 [DG]2 | %3
w: 1.~I’ve a friend, a pre- cious|friend in- deed,|One who hears me when for|
w: 2.~I am walk- ing with this|friend each day;|Sweet- est joy He gives me|
w: 3.~Tho’ the foes of earth may|try my soul,|He will nev- er give to|
 [EA]2 [CE]2 [EA]4 | [EA]>[Ec] [EG]>[EA] [EG]4 | [DG]>[DB] [DF]>[DG] F4 | %6
w: help I plead,|Fills my soul with peace,|gives me sweet re- lease,|
w: all the way,|Frees my soul from sin,|makes me glad with- in,|
w: them con- trol;|On Him I de- pend,|for He is my friend,|
 [=EG]>[EA] [EB]>[EG] [Ed]2 [E_d]2 | [Fc]6 z2 | [DF]>[DG] [DB]>[DG] [DF]2 [B,D]2 | %9
w: From the bur- dens hard to|bear;|And I love Him more than|
w: Fills my life with love’s glad|song;|When the storms of earth a-|
w: This He’s pro- ven o’er and|o’er;|When the clouds of grief a-|
 [DF]2 [DG]2 [B,D]4 | [DB]>[Ec] [Fd]>[Ec] [DB]2 [Fd]2 | [Ge]2 [Fd]2 [DFG]4 | %12
w: all be- side,|For up- on the rug- ged|cross He died,|
w: round me beat,|In His arms I find a|sure re- treat,|
w: round me rise,|Je- sus comes to me, a|glad sur- prise;|
 [=EG]>[EA] [EB]>[EG] [_Ec]4 | [DG]>[DA] [GB]>G [^Fd]4 | [GB]>[FA] [EG]>[EB] [DF]2 [Ec]2 | %15
w: Gave His life for me,|that I might be free,|And His pre- sence ev- er|
w: Safe from ev- ery harm,|free from all a- larm,|I am weak, but He is|
w: Drives the gloom a- way,|turns my night to day—|I shall praise Him ev- er-|
 [DB]6 z2 |] %16
w: share.|
w: strong.|
w: more.|
V:2
 x8 | x8 | x8 | x8 | x8 | x4 (D2 F2) | x8 | x8 | x8 | x8 | x8 | x8 | x8 | x7/2 G/ x4 | x8 | x8 |] %16
V:3
 [B,,B,]>[B,,B,] [B,,B,]>[B,,B,] [B,,B,]2 [B,,F,]2 | [B,,B,]2 [B,,B,]2 [B,,F,]4 | %2
 [B,,B,]>[B,,B,] [B,,B,]>[B,,B,] [B,,B,]2 [B,,B,]2 | [C,F,]2 [C,F,]2 [F,C]4 | %4
 [F,C]>[F,A,] [F,C]>[F,C] [F,A,]4 | [B,,B,]>[B,,F,] [B,,B,]>[B,,B,] B,4 | %6
 [C,B,]>[C,A,] [C,G,]>[C,C] [C,B,]2 [C,B,]2 | [F,A,]6 z2 | %8
 [B,,B,]>[B,,B,] [B,,B,]>[B,,B,] [B,,B,]2 [B,,F,]2 | [B,,B,]2 [B,,B,]2 [B,,F,]4 | %10
 [B,,F,]>[B,,F,] [B,,B,]>[B,,F,] [B,,F,]2 [B,,B,]2 | B,2 [_A,_B,]2 [G,=B,]4 | %12
 [C,C]>[C,C] [C,C]>[C,B,] [F,A,]4 | [G,B,]>[G,C] [G,B,]>[G,B,] [D,A,]4 | %14
 [E,G,]>[E,B,] [E,B,]>[E,G,] [F,A,]2 [F,,F,A,]2 | [B,,B,]6 z2 |] %16
V:4
 x8 | x8 | x8 | x8 | x8 | x4 (B,,2 D,2) | x8 | x8 | x8 | x8 | x8 | =B,2 x6 | x8 | x8 | x8 | x8 |] %16

